app/webpacker/images/logo/teaching_pink_background.svg

<svg width="454" height="200" viewBox="0 0 454 200" fill="none" xmlns="http://www.w3.org/2000/svg">
<path d="M444.577 -0.00110418L-0.00292969 23.2983L9.25164 199.886L453.832 176.587L444.577 -0.00110418Z" fill="#F162A0"/>
<path d="M324.22 53.0301H379.85V108.66H324.22V53.0301ZM316.76 116.12H387.32V45.5601H316.76V116.12Z" fill="black"/>
<path d="M367.87 63.75L344.21 87.41L336.3 79.49L331.02 84.77L344.21 97.96L373.14 69.03L367.87 63.75Z" fill="white"/>
<path d="M62.9697 108.67V112.4V116.12H304V112.4V108.67H62.9697Z" fill="black"/>
<path d="M146.41 77.8601C145.09 78.2201 138.7 79.8201 138.7 79.8201C135.87 80.4301 133.52 81.1701 133.52 84.1001C133.52 86.4301 135.68 87.9501 138.39 87.9501C141.9 87.9501 146.4 86.2401 146.4 82.2601V77.8501L146.41 77.8601ZM153.93 93.3401H146.41V90.5301C143.51 92.8601 140.12 94.0801 136.24 94.0801C130.32 94.0801 125.64 90.3501 125.64 84.3501C125.64 78.3501 130.51 75.6001 135.13 74.6801C135.13 74.6801 144.39 72.6901 146.41 72.2301V71.3101C146.41 68.2501 143.76 67.4001 140.49 67.4001C136.12 67.4001 134.7 68.6801 134.7 72.0501L127.18 71.7401C127.18 64.4601 133.65 61.6401 140.49 61.6401C147.33 61.6401 153.93 62.9901 153.93 71.8001V93.3401Z" fill="black"/>
<path d="M63 131.06H76.43V134.34H66.58V138.62H75.63V141.74H66.58V146.61H77.12V149.89H63V131.06Z" fill="black"/>
<path d="M77.21 136.51H80.64L83.33 145.76H83.39L86.08 136.51H89.52L85.07 149.89H81.66L77.21 136.51Z" fill="black"/>
<path d="M99.72 141.48C99.72 140.76 98.84 138.83 96.65 138.83C94.76 138.83 93.51 140.05 93.16 141.48H99.71H99.72ZM93.17 143.97C93.22 145.95 94.9 147.25 96.66 147.25C99.22 147.25 100.23 145.8 100.55 145.35L103.29 146.94C102.28 148.47 100.33 150.22 96.65 150.22C92.28 150.22 89.75 147.21 89.75 143.21C89.75 139.21 92.28 136.2 96.65 136.2C101.02 136.2 103.12 139.19 103.12 143.97H93.16H93.17Z" fill="black"/>
<path d="M105.13 136.51H108.38V138.36H108.43C109.2 136.83 110.69 136.19 112.58 136.19V139.47C110.37 139.47 108.37 140.5 108.37 143.41V149.89H105.12V136.51H105.13Z" fill="black"/>
<path d="M121.81 151.08C121.06 153.54 119.95 154.33 117.6 154.33C116.8 154.33 116.24 154.25 115.66 154.15V151.27C115.98 151.32 116.35 151.37 116.94 151.37C117.98 151.37 118.35 151.08 118.75 150.23L113.9 136.51H117.39L120.29 146.24H120.34L122.87 136.51H126.23L121.81 151.08Z" fill="black"/>
<path d="M135.14 131.06H138.7V146.61H146.4V149.89H135.14V131.06Z" fill="black"/>
<path d="M157.039 141.48C157.039 140.76 156.159 138.83 153.969 138.83C152.079 138.83 150.829 140.05 150.479 141.48H157.029H157.039ZM150.489 143.97C150.539 145.95 152.219 147.25 153.979 147.25C156.539 147.25 157.549 145.8 157.869 145.35L160.609 146.94C159.599 148.47 157.649 150.22 153.969 150.22C149.599 150.22 147.069 147.21 147.069 143.21C147.069 139.21 149.599 136.2 153.969 136.2C158.339 136.2 160.449 139.19 160.449 143.97H150.489Z" fill="black"/>
<path d="M171.64 140.74C171.24 139.87 170.18 138.86 168.26 138.84C166.74 138.84 165.78 139.34 165.78 140.14C165.78 142.47 174.28 140.48 174.28 145.53C174.28 148.76 171.38 150.21 168.29 150.21C165.2 150.21 162.96 149.13 161.76 147.78L164.21 145.9C164.96 146.98 166.37 147.57 168.1 147.57C169.64 147.57 170.71 146.72 170.71 146.01C170.71 143.74 162.37 145.61 162.37 140.54C162.37 137.52 165.01 136.2 168.34 136.2C171.67 136.2 173.27 137.84 173.91 138.63L171.64 140.74Z" fill="black"/>
<path d="M185.18 140.74C184.78 139.87 183.72 138.86 181.8 138.84C180.28 138.84 179.32 139.34 179.32 140.14C179.32 142.47 187.82 140.48 187.82 145.53C187.82 148.76 184.92 150.21 181.83 150.21C178.74 150.21 176.5 149.13 175.3 147.78L177.75 145.9C178.5 146.98 179.91 147.57 181.64 147.57C183.18 147.57 184.25 146.72 184.25 146.01C184.25 143.74 175.91 145.61 175.91 140.54C175.91 137.52 178.55 136.2 181.88 136.2C185.21 136.2 186.81 137.84 187.45 138.63L185.18 140.74Z" fill="black"/>
<path d="M192.749 143.2C192.749 145.29 193.919 147.25 196.239 147.25C198.559 147.25 199.729 145.29 199.729 143.2C199.729 141.11 198.559 139.16 196.239 139.16C193.919 139.16 192.749 141.12 192.749 143.2ZM203.129 143.2C203.129 147.19 200.599 150.21 196.229 150.21C191.859 150.21 189.329 147.2 189.329 143.2C189.329 139.2 191.859 136.19 196.229 136.19C200.599 136.19 203.129 139.21 203.129 143.2Z" fill="black"/>
<path d="M205.429 136.51H208.679V137.83H208.729C209.689 136.67 211.099 136.19 212.399 136.19C215.599 136.19 217.029 137.8 217.029 140.74V149.89H213.779V141.72C213.779 140.5 213.219 139.31 211.539 139.31C209.969 139.31 208.659 140.37 208.659 142.83V149.89H205.409V136.51H205.429Z" fill="black"/>
<path d="M228.179 144.23C229.509 146.19 231.589 147.08 233.909 147.08C235.639 147.08 237.929 146.5 237.929 144.67C237.929 143.19 236.539 142.77 234.009 142.18L231.909 141.7C228.869 141.01 226.209 139.9 226.209 136.44C226.209 132.48 230.019 130.57 233.559 130.57C236.809 130.57 239.499 131.76 241.469 134.35L238.509 136.57C237.599 134.85 235.849 133.85 233.529 133.85C231.479 133.85 229.929 134.62 229.929 135.94C229.929 137.5 231.719 137.9 233.849 138.35L236.169 138.85C238.989 139.46 241.659 140.6 241.659 144.17C241.659 148.77 237.289 150.36 233.349 150.36C230.209 150.36 226.959 149.01 225.149 146.39L228.189 144.22L228.179 144.23Z" fill="black"/>
<path d="M243.959 131.06H247.209V137.83H247.259C247.979 136.91 249.279 136.19 251.119 136.19C253.409 136.19 256.049 137.14 256.049 141.03V149.89H252.799V141.96C252.799 140.11 252.049 139.32 250.399 139.32C247.949 139.32 247.199 141.38 247.199 143.02V149.89H243.949V131.06H243.959Z" fill="black"/>
<path d="M267.089 143.2C266.659 143.41 266.129 143.54 265.539 143.68L263.759 144.05C262.529 144.31 261.519 144.63 261.519 145.9C261.519 146.91 262.449 147.56 263.619 147.56C265.139 147.56 267.079 146.82 267.079 145.1V143.2H267.089ZM270.339 147.64C270.339 149.01 270.659 149.6 270.849 149.89H267.409C267.199 149.57 267.089 149.02 267.089 148.67C265.839 149.67 264.369 150.2 262.689 150.2C260.129 150.2 258.109 148.59 258.109 146C258.109 143.41 260.209 142.22 262.209 141.82L263.569 141.56C264.739 141.32 266.259 141.05 267.089 140.76V140.37C267.089 139.05 265.939 138.68 264.529 138.68C262.639 138.68 262.029 139.23 262.029 140.69L258.779 140.56C258.779 137.41 261.579 136.2 264.529 136.2C267.479 136.2 270.339 136.78 270.339 140.59V147.65V147.64Z" fill="black"/>
<path d="M282.659 143.2C282.659 141.27 281.909 139.15 279.459 139.15C277.009 139.15 276.259 141.26 276.259 143.2C276.259 145.14 277.009 147.25 279.459 147.25C281.909 147.25 282.659 145.14 282.659 143.2ZM273.119 136.51H276.369V137.65H276.419C277.409 136.75 278.659 136.2 280.259 136.2C283.669 136.2 286.069 139.35 286.069 143.21C286.069 147.07 283.669 150.22 280.209 150.22C278.259 150.22 277.229 149.56 276.369 148.61V154.19H273.119V136.52V136.51Z" fill="black"/>
<path d="M297.939 141.48C297.939 140.76 297.059 138.83 294.879 138.83C292.989 138.83 291.739 140.05 291.389 141.48H297.939ZM291.389 143.97C291.439 145.95 293.119 147.25 294.879 147.25C297.439 147.25 298.449 145.8 298.769 145.35L301.509 146.94C300.499 148.47 298.559 150.22 294.879 150.22C290.509 150.22 287.979 147.21 287.979 143.21C287.979 139.21 290.509 136.2 294.879 136.2C299.249 136.2 301.349 139.19 301.349 143.97H291.389Z" fill="black"/>
<path d="M312.539 140.74C312.139 139.87 311.069 138.86 309.159 138.84C307.639 138.84 306.679 139.34 306.679 140.14C306.679 142.47 315.179 140.48 315.179 145.53C315.179 148.76 312.279 150.21 309.189 150.21C306.099 150.21 303.859 149.13 302.659 147.78L305.109 145.9C305.859 146.98 307.269 147.57 308.999 147.57C310.549 147.57 311.609 146.72 311.609 146.01C311.609 143.74 303.269 145.61 303.269 140.54C303.269 137.52 305.909 136.2 309.239 136.2C312.569 136.2 314.169 137.84 314.809 138.63L312.549 140.74H312.539Z" fill="black"/>
<path d="M332.37 143.2C331.94 143.41 331.41 143.54 330.82 143.68L329.04 144.05C327.81 144.31 326.8 144.63 326.8 145.9C326.8 146.91 327.73 147.56 328.9 147.56C330.42 147.56 332.36 146.82 332.36 145.1V143.2H332.37ZM335.62 147.64C335.62 149.01 335.94 149.6 336.13 149.89H332.69C332.48 149.57 332.37 149.02 332.37 148.67C331.12 149.67 329.65 150.2 327.97 150.2C325.41 150.2 323.39 148.59 323.39 146C323.39 143.41 325.49 142.22 327.49 141.82L328.85 141.56C330.02 141.32 331.54 141.05 332.37 140.76V140.37C332.37 139.05 331.22 138.68 329.81 138.68C327.92 138.68 327.31 139.23 327.31 140.69L324.06 140.56C324.06 137.41 326.86 136.2 329.81 136.2C332.76 136.2 335.62 136.78 335.62 140.59V147.65V147.64Z" fill="black"/>
<path d="M345.96 131.06H349.53V146.61H357.23V149.89H345.96V131.06Z" fill="black"/>
<path d="M359.369 136.51H362.619V149.89H359.369V136.51ZM359.369 131.06H362.619V134.34H359.369V131.06Z" fill="black"/>
<path d="M366.749 138.83H364.779V136.5H366.749V134.38C366.749 131.66 368.589 131.05 370.719 131.05C371.439 131.05 372.179 131.08 372.899 131.13V133.93C372.549 133.88 372.179 133.85 371.839 133.85C370.529 133.85 369.999 134.38 369.999 135.54V136.49H372.899V138.82H369.999V149.87H366.749V138.82V138.83Z" fill="black"/>
<path d="M383.739 141.48C383.739 140.76 382.859 138.83 380.669 138.83C378.779 138.83 377.529 140.05 377.179 141.48H383.729H383.739ZM377.189 143.97C377.239 145.95 378.919 147.25 380.679 147.25C383.239 147.25 384.249 145.8 384.569 145.35L387.309 146.94C386.299 148.47 384.349 150.22 380.679 150.22C376.309 150.22 373.779 147.21 373.779 143.21C373.779 139.21 376.309 136.2 380.679 136.2C385.049 136.2 387.149 139.19 387.149 143.97H377.189Z" fill="black"/>
<path d="M74.9897 57.36H62.9697V49.78H95.2597V57.36H83.2397V93.34H74.9897V57.36Z" fill="black"/>
<path d="M113.219 73.8801C113.219 72.2301 111.189 67.7601 106.129 67.7601C101.749 67.7601 98.8592 70.5701 98.0592 73.8801H113.219ZM98.0492 79.6301C98.1692 84.2201 102.059 87.2201 106.119 87.2201C112.039 87.2201 113.629 83.8501 114.369 82.8101L120.719 86.4801C118.379 90.0301 114.619 94.0701 106.119 94.0701C96.0092 94.0701 90.1592 87.0901 90.1592 77.8601C90.1592 68.6301 96.0192 61.6401 106.119 61.6401C116.219 61.6401 121.099 68.5601 121.099 79.6301H98.0492Z" fill="black"/>
<path d="M181.429 73.4601C180.439 70.4001 177.789 68.5001 174.829 68.5001C169.469 68.5001 166.759 73.0301 166.759 77.8601C166.759 82.6901 169.159 87.2201 174.399 87.2201C178.899 87.2201 180.809 84.0401 181.979 81.2201L188.389 84.5801C186.299 89.1101 182.719 94.0601 174.279 94.0601C164.729 94.0601 158.869 87.0901 158.869 77.8501C158.869 68.6101 164.729 61.6401 174.829 61.6401C182.409 61.6401 186.109 65.8001 188.019 70.4501L181.419 73.4501L181.429 73.4601Z" fill="black"/>
<path d="M193.219 49.78H200.739V65.44H200.859C202.529 63.3 205.539 61.65 209.799 61.65C215.099 61.65 221.199 63.85 221.199 72.85V93.35H213.679V75C213.679 70.72 211.949 68.88 208.129 68.88C202.459 68.88 200.729 73.65 200.729 77.45V93.36H193.209V49.8L193.219 49.78Z" fill="black"/>
<path d="M227.859 62.38H235.379V93.34H227.859V62.38ZM227.859 49.78H235.379V57.37H227.859V49.78Z" fill="black"/>
<path d="M241.73 62.3801H249.25V65.4401H249.37C251.59 62.7501 254.85 61.6501 257.88 61.6501C265.28 61.6501 268.6 65.3801 268.6 72.1701V93.3401H261.08V74.4301C261.08 71.6201 259.79 68.8601 255.9 68.8601C252.26 68.8601 249.24 71.3101 249.24 77.0001V93.3401H241.72V62.3801H241.73Z" fill="black"/>
<path d="M289.32 84.9001C283.65 84.9001 281.92 80.0001 281.92 76.7001C281.92 73.4001 283.65 68.5001 289.32 68.5001C294.99 68.5001 296.72 73.4001 296.72 76.7001C296.72 80.0001 294.99 84.9001 289.32 84.9001ZM296.47 62.3801V65.3801H296.35C294.5 63.1801 292.1 61.6501 287.6 61.6501C279.84 61.6501 274.04 67.4001 274.04 76.7001C274.04 86.0001 279.83 91.7501 287.6 91.7501C290.31 91.7501 294.07 90.8901 296.48 88.3201C296.48 88.3201 296.48 89.6801 296.48 91.0201C296.48 96.3401 293.63 97.7801 289.25 97.7801C287.53 97.7801 283.77 97.1601 283.09 93.9601H274.96C275.82 98.0901 277.61 104.06 289.06 104.06C297.8 104.06 303.98 100.63 303.98 91.7501C303.98 82.8701 303.98 62.3801 303.98 62.3801H296.46H296.47Z" fill="black"/>
</svg>

<?xml version="1.0" encoding="UTF-8"?>
<svg id="Layer_2" data-name="Layer 2" xmlns="http://www.w3.org/2000/svg" viewBox="0 0 453.84 199.89">
  <defs>
    <style>
      .cls-1, .cls-2, .cls-3 {
        stroke-width: 0px;
      }

      .cls-2 {
        fill: #fff;
      }

      .cls-3 {
        fill: #f162a3;
      }
    </style>
  </defs>
  <g id="Layer_1-2" data-name="Layer 1">
    <g>
      <rect class="cls-3" x="4.32" y="11.53" width="445.19" height="176.83" transform="translate(-4.92 12.01) rotate(-3)"/>
      <path class="cls-1" d="M324.22,53.03h55.63v55.63h-55.63v-55.63ZM316.76,116.12h70.56V45.56h-70.56v70.56Z"/>
      <polygon class="cls-2" points="367.87 63.75 344.21 87.41 336.3 79.49 331.02 84.77 344.21 97.96 373.14 69.03 367.87 63.75"/>
      <polygon class="cls-1" points="62.97 108.67 62.97 112.4 62.97 116.12 304 116.12 304 112.4 304 108.67 62.97 108.67"/>
      <path class="cls-1" d="M146.41,77.86c-1.32.36-7.71,1.96-7.71,1.96-2.83.61-5.18,1.35-5.18,4.28,0,2.33,2.16,3.85,4.87,3.85,3.51,0,8.01-1.71,8.01-5.69v-4.41ZM153.93,93.34h-7.52v-2.81c-2.9,2.33-6.29,3.55-10.17,3.55-5.92,0-10.6-3.73-10.6-9.73s4.87-8.75,9.49-9.67c0,0,9.26-1.99,11.28-2.45v-.92c0-3.06-2.65-3.91-5.92-3.91-4.37,0-5.79,1.28-5.79,4.65l-7.52-.31c0-7.28,6.47-10.1,13.31-10.1s13.44,1.35,13.44,10.16v21.54Z"/>
      <polygon class="cls-1" points="63 131.06 76.43 131.06 76.43 134.34 66.58 134.34 66.58 138.62 75.63 138.62 75.63 141.74 66.58 141.74 66.58 146.61 77.12 146.61 77.12 149.89 63 149.89 63 131.06"/>
      <polygon class="cls-1" points="77.21 136.51 80.64 136.51 83.33 145.76 83.39 145.76 86.08 136.51 89.52 136.51 85.07 149.89 81.66 149.89 77.21 136.51"/>
      <g>
        <path class="cls-1" d="M99.72,141.48c0-.72-.88-2.65-3.07-2.65-1.89,0-3.14,1.22-3.49,2.65h6.55ZM93.17,143.97c.05,1.98,1.73,3.28,3.49,3.28,2.56,0,3.57-1.45,3.89-1.9l2.74,1.59c-1.01,1.53-2.96,3.28-6.64,3.28-4.37,0-6.9-3.01-6.9-7.01s2.53-7.01,6.9-7.01,6.47,2.99,6.47,7.77h-9.96Z"/>
        <path class="cls-1" d="M105.13,136.51h3.25v1.85h.05c.77-1.53,2.26-2.17,4.15-2.17v3.28c-2.21,0-4.21,1.03-4.21,3.94v6.48h-3.25v-13.38Z"/>
        <path class="cls-1" d="M121.81,151.08c-.75,2.46-1.86,3.25-4.21,3.25-.8,0-1.36-.08-1.94-.18v-2.88c.32.05.69.1,1.28.1,1.04,0,1.41-.29,1.81-1.14l-4.85-13.72h3.49l2.9,9.73h.05l2.53-9.73h3.36l-4.42,14.57Z"/>
      </g>
      <polygon class="cls-1" points="135.14 131.06 138.7 131.06 138.7 146.61 146.4 146.61 146.4 149.89 135.14 149.89 135.14 131.06"/>
      <g>
        <path class="cls-1" d="M157.04,141.48c0-.72-.88-2.65-3.07-2.65-1.89,0-3.14,1.22-3.49,2.65h6.55ZM150.49,143.97c.05,1.98,1.73,3.28,3.49,3.28,2.56,0,3.57-1.45,3.89-1.9l2.74,1.59c-1.01,1.53-2.96,3.28-6.64,3.28-4.37,0-6.9-3.01-6.9-7.01s2.53-7.01,6.9-7.01,6.48,2.99,6.48,7.77h-9.96Z"/>
        <path class="cls-1" d="M171.64,140.74c-.4-.87-1.46-1.88-3.38-1.9-1.52,0-2.48.5-2.48,1.3,0,2.33,8.5.34,8.5,5.39,0,3.23-2.9,4.68-5.99,4.68s-5.33-1.08-6.53-2.43l2.45-1.88c.75,1.08,2.16,1.67,3.89,1.67,1.54,0,2.61-.85,2.61-1.56,0-2.27-8.34-.4-8.34-5.47,0-3.02,2.64-4.34,5.97-4.34s4.93,1.64,5.57,2.43l-2.27,2.11Z"/>
        <path class="cls-1" d="M185.18,140.74c-.4-.87-1.46-1.88-3.38-1.9-1.52,0-2.48.5-2.48,1.3,0,2.33,8.5.34,8.5,5.39,0,3.23-2.9,4.68-5.99,4.68s-5.33-1.08-6.53-2.43l2.45-1.88c.75,1.08,2.16,1.67,3.89,1.67,1.54,0,2.61-.85,2.61-1.56,0-2.27-8.34-.4-8.34-5.47,0-3.02,2.64-4.34,5.97-4.34s4.93,1.64,5.57,2.43l-2.27,2.11Z"/>
        <path class="cls-1" d="M192.75,143.2c0,2.09,1.17,4.05,3.49,4.05s3.49-1.96,3.49-4.05-1.17-4.04-3.49-4.04-3.49,1.96-3.49,4.04M203.13,143.2c0,3.99-2.53,7.01-6.9,7.01s-6.9-3.01-6.9-7.01,2.53-7.01,6.9-7.01,6.9,3.02,6.9,7.01"/>
        <path class="cls-1" d="M205.43,136.51h3.25v1.32h.05c.96-1.16,2.37-1.64,3.67-1.64,3.2,0,4.63,1.61,4.63,4.55v9.15h-3.25v-8.17c0-1.22-.56-2.41-2.24-2.41-1.57,0-2.88,1.06-2.88,3.52v7.06h-3.25v-13.38Z"/>
        <path class="cls-1" d="M228.18,144.23c1.33,1.96,3.41,2.85,5.73,2.85,1.73,0,4.02-.58,4.02-2.41,0-1.48-1.39-1.9-3.92-2.49l-2.1-.48c-3.04-.69-5.7-1.8-5.7-5.26,0-3.96,3.81-5.87,7.35-5.87,3.25,0,5.94,1.19,7.91,3.78l-2.96,2.22c-.91-1.72-2.66-2.72-4.98-2.72-2.05,0-3.6.77-3.6,2.09,0,1.56,1.79,1.96,3.92,2.41l2.32.5c2.82.61,5.49,1.75,5.49,5.32,0,4.6-4.37,6.19-8.31,6.19-3.14,0-6.39-1.35-8.2-3.97l3.04-2.17Z"/>
        <path class="cls-1" d="M243.96,131.06h3.25v6.77h.05c.72-.92,2.02-1.64,3.86-1.64,2.29,0,4.93.95,4.93,4.84v8.86h-3.25v-7.93c0-1.85-.75-2.64-2.4-2.64-2.45,0-3.2,2.06-3.2,3.7v6.87h-3.25v-18.83Z"/>
        <path class="cls-1" d="M267.09,143.2c-.43.21-.96.34-1.55.48l-1.78.37c-1.23.26-2.24.58-2.24,1.85,0,1.01.93,1.66,2.1,1.66,1.52,0,3.46-.74,3.46-2.46v-1.9ZM270.34,147.64c0,1.37.32,1.96.51,2.25h-3.44c-.21-.32-.32-.87-.32-1.22-1.25,1-2.72,1.53-4.4,1.53-2.56,0-4.58-1.61-4.58-4.2s2.1-3.78,4.1-4.18l1.36-.26c1.17-.24,2.69-.51,3.52-.8v-.39c0-1.32-1.15-1.69-2.56-1.69-1.89,0-2.5.55-2.5,2.01l-3.25-.13c0-3.15,2.8-4.36,5.75-4.36s5.81.58,5.81,4.39v7.06Z"/>
        <path class="cls-1" d="M282.66,143.2c0-1.93-.75-4.05-3.2-4.05s-3.2,2.11-3.2,4.05.75,4.05,3.2,4.05,3.2-2.11,3.2-4.05M273.12,136.51h3.25v1.14h.05c.99-.9,2.24-1.45,3.84-1.45,3.41,0,5.81,3.15,5.81,7.01s-2.4,7.01-5.86,7.01c-1.95,0-2.98-.66-3.84-1.61v5.58h-3.25v-17.67Z"/>
        <path class="cls-1" d="M297.94,141.48c0-.72-.88-2.65-3.06-2.65-1.89,0-3.14,1.22-3.49,2.65h6.55ZM291.39,143.97c.05,1.98,1.73,3.28,3.49,3.28,2.56,0,3.57-1.45,3.89-1.9l2.74,1.59c-1.01,1.53-2.95,3.28-6.63,3.28-4.37,0-6.9-3.01-6.9-7.01s2.53-7.01,6.9-7.01,6.47,2.99,6.47,7.77h-9.96Z"/>
        <path class="cls-1" d="M312.54,140.74c-.4-.87-1.47-1.88-3.38-1.9-1.52,0-2.48.5-2.48,1.3,0,2.33,8.5.34,8.5,5.39,0,3.23-2.9,4.68-5.99,4.68s-5.33-1.08-6.53-2.43l2.45-1.88c.75,1.08,2.16,1.67,3.89,1.67,1.55,0,2.61-.85,2.61-1.56,0-2.27-8.34-.4-8.34-5.47,0-3.02,2.64-4.34,5.97-4.34s4.93,1.64,5.57,2.43l-2.26,2.11Z"/>
        <path class="cls-1" d="M332.37,143.2c-.43.21-.96.34-1.55.48l-1.78.37c-1.23.26-2.24.58-2.24,1.85,0,1.01.93,1.66,2.1,1.66,1.52,0,3.46-.74,3.46-2.46v-1.9ZM335.62,147.64c0,1.37.32,1.96.51,2.25h-3.44c-.21-.32-.32-.87-.32-1.22-1.25,1-2.72,1.53-4.4,1.53-2.56,0-4.58-1.61-4.58-4.2s2.1-3.78,4.1-4.18l1.36-.26c1.17-.24,2.69-.51,3.52-.8v-.39c0-1.32-1.15-1.69-2.56-1.69-1.89,0-2.5.55-2.5,2.01l-3.25-.13c0-3.15,2.8-4.36,5.75-4.36s5.81.58,5.81,4.39v7.06Z"/>
      </g>
      <polygon class="cls-1" points="345.96 131.06 349.53 131.06 349.53 146.61 357.23 146.61 357.23 149.89 345.96 149.89 345.96 131.06"/>
      <path class="cls-1" d="M359.37,136.51h3.25v13.38h-3.25v-13.38ZM359.37,131.06h3.25v3.28h-3.25v-3.28Z"/>
      <g>
        <path class="cls-1" d="M366.75,138.83h-1.97v-2.33h1.97v-2.12c0-2.72,1.84-3.33,3.97-3.33.72,0,1.46.03,2.18.08v2.8c-.35-.05-.72-.08-1.06-.08-1.31,0-1.84.53-1.84,1.69v.95h2.9v2.33h-2.9v11.05h-3.25v-11.05Z"/>
        <path class="cls-1" d="M383.74,141.48c0-.72-.88-2.65-3.07-2.65-1.89,0-3.14,1.22-3.49,2.65h6.55ZM377.19,143.97c.05,1.98,1.73,3.28,3.49,3.28,2.56,0,3.57-1.45,3.89-1.9l2.74,1.59c-1.01,1.53-2.96,3.28-6.63,3.28-4.37,0-6.9-3.01-6.9-7.01s2.53-7.01,6.9-7.01,6.47,2.99,6.47,7.77h-9.96Z"/>
      </g>
      <polygon class="cls-1" points="74.99 57.36 62.97 57.36 62.97 49.78 95.26 49.78 95.26 57.36 83.24 57.36 83.24 93.34 74.99 93.34 74.99 57.36"/>
      <g>
        <path class="cls-1" d="M113.22,73.88c0-1.65-2.03-6.12-7.09-6.12-4.38,0-7.27,2.81-8.07,6.12h15.16ZM98.05,79.63c.12,4.59,4.01,7.59,8.07,7.59,5.92,0,7.51-3.37,8.25-4.41l6.35,3.67c-2.34,3.55-6.1,7.59-14.6,7.59-10.11,0-15.96-6.98-15.96-16.21s5.86-16.22,15.96-16.22,14.98,6.92,14.98,17.99h-23.05Z"/>
        <path class="cls-1" d="M181.43,73.46c-.99-3.06-3.64-4.96-6.6-4.96-5.36,0-8.07,4.53-8.07,9.36s2.4,9.36,7.64,9.36c4.5,0,6.41-3.18,7.58-6l6.41,3.36c-2.09,4.53-5.67,9.48-14.11,9.48-9.55,0-15.41-6.97-15.41-16.21s5.86-16.21,15.96-16.21c7.58,0,11.28,4.16,13.19,8.81l-6.6,3Z"/>
        <path class="cls-1" d="M193.22,49.78h7.52v15.66h.12c1.67-2.14,4.68-3.79,8.94-3.79,5.3,0,11.4,2.2,11.4,11.2v20.5h-7.52v-18.35c0-4.28-1.73-6.12-5.55-6.12-5.67,0-7.4,4.77-7.4,8.57v15.91h-7.52v-43.56Z"/>
      </g>
      <path class="cls-1" d="M227.86,62.38h7.52v30.96h-7.52v-30.96ZM227.86,49.78h7.52v7.59h-7.52v-7.59Z"/>
      <g>
        <path class="cls-1" d="M241.73,62.38h7.52v3.06h.12c2.22-2.69,5.48-3.79,8.51-3.79,7.4,0,10.72,3.73,10.72,10.52v21.17h-7.52v-18.91c0-2.81-1.29-5.57-5.18-5.57-3.64,0-6.66,2.45-6.66,8.14v16.34h-7.52v-30.96Z"/>
        <path class="cls-1" d="M289.32,84.9c-5.67,0-7.4-4.9-7.4-8.2s1.73-8.2,7.4-8.2,7.4,4.9,7.4,8.2-1.73,8.2-7.4,8.2M296.47,62.38v3h-.12c-1.85-2.2-4.25-3.73-8.75-3.73-7.76,0-13.56,5.75-13.56,15.05s5.79,15.05,13.56,15.05c2.71,0,6.47-.86,8.88-3.43,0,0,0,1.36,0,2.7,0,5.32-2.85,6.76-7.23,6.76-1.72,0-5.48-.62-6.16-3.82h-8.13c.86,4.13,2.65,10.1,14.1,10.1,8.74,0,14.92-3.43,14.92-12.31s0-29.37,0-29.37h-7.52Z"/>
      </g>
    </g>
  </g>
</svg>
